X: 15034
T: George Rowley's
R: hornpipe
M: 4/4
K: Gmajor
ed|:cdBc ABcd|e2 A2 A2 ed|cdBc ABcA|B2 G2 G2 ed|
cdBc A3B|cBcd e3f|gfge aged|c2 A2 A2:|
(3efg|:ageg aged|c2 A2 A3e|gfga gedc|B2 G2 G2 (3efg|
ageg aged|cBcd e3f|gfge aged|c2 A2 A2:|

